X: 0
T: St. Martin Orgar
L: 1/4
M: none
Q: 1/4=416
K: Eb
[V: P1]  E F G2 B2 E2 | E2 F2 G2 B B | c2 d2 e2 G2 | G2 B2 F2 F2 | G3 G =A2 A2 | B2 B2 c2 c c | d2 d2 e2 c2 | c2 (d c) B2 B2 | c3 A F2 F2 | B3 G E2 E E | A2 B2 G2 G2 | G2 ^F2 G2 d2 | e3 c A2 A2 | d3 B G2 G G | c2 (A G) F2 E2 | E2 D2 E2|]

